svgs/sharp-light/square-1.svg

<svg xmlns="http://www.w3.org/2000/svg" viewBox="0 0 448 512"><!--! Font Awesome Pro 6.6.0 by @fontawesome - https://fontawesome.com License - https://fontawesome.com/license (Commercial License) Copyright 2024 Fonticons, Inc. --><path d="M32 64l0 384 384 0 0-384L32 64zM0 32l32 0 384 0 32 0 0 32 0 384 0 32-32 0L32 480 0 480l0-32L0 64 0 32zM164.9 197.3L152 205.9l0-38.5 55.1-36.8 4-2.7 4.8 0 8 0 16 0 0 16 0 208 48 0 16 0 0 32-16 0-64 0-64 0-16 0 0-32 16 0 48 0 0-183.4-43.1 28.8z"/></svg>

<svg xmlns="http://www.w3.org/2000/svg" viewBox="0 0 448 512"><!--! Font Awesome Pro 6.4.2 by @fontawesome - https://fontawesome.com License - https://fontawesome.com/license (Commercial License) Copyright 2023 Fonticons, Inc. --><path d="M32 64V448H416V64H32zM0 32H32 416h32V64 448v32H416 32 0V448 64 32zM164.9 197.3L152 205.9V167.4l55.1-36.8 4-2.7H216h8 16v16V352h48 16v32H288 224 160 144V352h16 48V168.6l-43.1 28.8z"/></svg>
